X:1
T:God Knows It All
T:God Knows It All
T:James Ramsey Murray
T:Frances Jane (Famm) Crosby, 1896
T:Public Domain Courtesy of the Cyber Hymnal™
C:James Ramsey Murray
Z:Public Domain
Z:Courtesy of the Cyber Hymnal™
%%score ( 1 2 ) ( 3 4 )
L:1/8
Q:1/4=103
M:4/4
K:Eb
V:1 treble 
V:2 treble 
V:3 bass 
V:4 bass 
V:1
 [EB]3 [EB] [Ec]2 [EB]2 | [EG]3 [EG] [EA]2 [EG]2 | E4 [DF]2 [DF]2 | [EG]2 ([FA][EG]) [DF]4 | %4
w: 1.~Art thou wea- ry,|soul, of stray- ing?|God knows, He|knows it * all;|
w: 2.~Is the path- way|long and drear- y?|God knows, He|knows it * all;|
w: 3.~Do thy cher- ished|friends for- sake thee?|God knows, He|knows it * all;|
 [EB]3 [EB] [Ec]2 [EB]2 | [EG]3 [EG] [EA]2 [EG]2 | [DB]4 [DA]2 [DF]2 | E6 z2 || %8
w: Come to Him, make|no de- lay- ing,|He knows it|all.|
w: He will strength- en|thee when wea- ry,|He knows it|all.|
w: To His shel- tering|arms be- take thee,|He knows it|all.|
[M:3/4][Q:1/4=110]"^Refrain" [Ge]2 [Bd]2 [Ac]2 | ([Ac][GB]) [EG]4 | [Ec]2 [Ed]2 [Ee]2 | [EB]4 z2 | %12
w: ||||
w: Come with thy|sor- * row,|come with thy|care;|
w: ||||
 [EG]2 [=EG]2 [EG]2 | [FB]2 [FA]2 [EG]2 | [DF]2 [FB]2 [FA]2 | [EG]4 z2 | [Ge]2 [Bd]2 [Ac]2 | %17
w: |||||
w: Come with thy|bur- den so|hea- vy to|bear;|He knows thy|
w: |||||
 ([Ac][GB]) [EG]4 | [^Fc]2 [Fd]2 [Fe]2 | [GB]4 z2 | [Ad]2 [Ac]2 [Fd]2 | [Ee]2 [GB]2 [EG]2 | %22
w: |||||
w: sor- * row,|He knows it|all;|Come to thy|help- er, oh,|
w: |||||
 [DB]2 [DA]2 [DF]2 | E4 z2 |] %24
w: ||
w: heed now His|call.|
w: ||
V:2
 x8 | x8 | E4 x4 | x8 | x8 | x8 | x8 | E6 x2 ||[M:3/4] x6 | x6 | x6 | x6 | x6 | x6 | x6 | x6 | x6 | %17
 x6 | x6 | x6 | x6 | x6 | x6 | E4 x2 |] %24
V:3
 [E,G,]3 [E,G,] [E,A,]2 [E,G,]2 | [E,B,]3 [E,B,] [E,C]2 [E,B,]2 | [G,,B,]4 [B,,B,]2 [B,,B,]2 | %3
 [E,B,]2 B,2 [B,,B,]4 | [E,G,]3 [E,G,] [E,A,]2 [E,G,]2 | [E,B,]3 [E,B,] [E,C]2 [E,B,]2 | %6
 [B,,B,]4 [B,,F,]2 [B,,B,]2 | [E,G,]6 z2 ||[M:3/4] B,2 (A,B,) (CD) | [E,E]2 [E,B,]4 | %10
 A,2 [A,B,]2 [A,,C]2 | [E,G,]4 z2 | [E,B,]2 [C,C]2 [C,C]2 | [F,C]2 [F,C]2 [F,=A,]2 | %14
 [B,,B,]2 [D,B,]2 [B,,B,]2 | [E,B,]4 z2 | B,2 (A,B,) (CD) | [E,E]2 [E,B,]4 | %18
 [E,=A,]2 [E,A,]2 [E,A,]2 | [E,B,]4 z2 | B,2 B,2 [A,B,]2 | [G,B,]2 [E,E]2 [E,B,]2 | %22
 [B,,B,]2 [B,,F,]2 [B,,A,]2 | [E,G,]4 z2 |] %24
V:4
 x8 | x8 | x8 | x2 (D,E,) x4 | x8 | x8 | x8 | x8 ||[M:3/4] (E,G,) A,2 A,2 | x6 | A,2 x4 | x6 | x6 | %13
 x6 | x6 | x6 | (E,G,) A,2 A,2 | x6 | x6 | x6 | B,2 B,2 x2 | x6 | x6 | x6 |] %24

